X: 67
T: No_5_Bear_Dance_Song_(a).krn
N: Derived from No_5_Bear_Dance_Song_(a).krn
%%abc-version 2.0
%%abcx-abcm2ps-target-version 5.9.1 (29 Sep 2008)
%%abc-creator hum2abc beta
%%abcx-conversion-date 2019/03/15 08:36:49
%%humdrum-veritas 624495058
%%humdrum-veritas-data 2218029416
%%linebreak <none>
%%barnumbers 0
L: 1/4
M: 2/4
K: Bb clef=bass
C/ [I:setbarnb 1]| 
C3/C/ | 
C3/C/ | 
C3/C/ | 
C3/D/ | 
DC | 
D3/F/ | 
F3/D/ | 
B,3/G,/ | 
F,3/F,/ | 
F,3/F,/ | 
F,3/F,/ | 
F,2 | 
CG, | 
B,F,3//B,// | 
B,3/C/ | 
C3/G,/ ||  
[M:3/4]G,F,3/F,/ ||  
[M:2/4]F,3/F,/ | 
F,3/F,/ | 
F,2 |]  



